!!!COM: Palestrina, Giovanni Perluigi da
!!!OPR: Missa Descendit angelus Domini
!!!OMD: Credo
!!!OTL: Et iterum
**kern	**kern	**kern	**kern
*Ibass	*Itenor	*Icalto	*Icant
!Bassus	!Tenor	!Altus	!Cantus
*clefF4	*clefGv2	*clefG2	*clefG2
*k[b-]	*k[b-]	*k[b-]	*k[b-]
*F:ion	*F:ion	*F:ion	*F:ion
*M4/2	*M4/2	*M4/2	*M4/2
=139	=139	=139	=139
0r	0r	0r	1f
.	.	.	[1cc
=140	=140	=140	=140
0r	0r	1c	2cc]
.	.	.	2cc
.	.	[1f	2dd
.	.	.	2cc
=141	=141	=141	=141
0r	0r	2f]	1ff
.	.	2f	.
.	.	2g	2ee
.	.	2f	[2dd
=142	=142	=142	=142
0r	2r	1b-	2dd]
.	2G	.	4cc
.	.	.	4b-
.	2A	2a	2cc
.	2B-	[2g	2dd
=143	=143	=143	=143
2r	1c	2g]	1g
2C	.	4f	.
.	.	4e	.
2D	2A	2f	1r
2E	2G	2g	.
=144	=144	=144	=144
1F	4A	2c	2r
.	4B-	.	.
.	4c	2f	2cc
.	4A	.	.
2D	2B-	2f	2dd
2C	2c	2e	2ee
=145	=145	=145	=145
4D	2.A	2d	1ff
4E	.	.	.
4F	.	1a	.
4G	4B-	.	.
4A	1c	.	2.ee
4B-	.	.	.
[2c	.	2g	.
.	.	.	4cc
=146	=146	=146	=146
2c]	2G	2.g	1dd
2B	2.g	.	.
.	.	4f	.
1c	.	4e	2cc
.	4f	4d	.
.	4g	2e	2g
.	4e	.	.
=147	=147	=147	=147
2r	2f	1d	2a
2G	2g	.	2b-
2A	1f	2r	2cc
2B-	.	2d	2dd
=148	=148	=148	=148
2c	2r	2e	1cc
2A	2c	2f	.
2G	2d	2g	2r
[2c	2e	2e	2cc
=149	=149	=149	=149
2c]	2f	2d	1dd
2B-	2d	1g	.
2c	1c	.	2ee
[2F	.	[2a	[2ff
=150	=150	=150	=150
4F]	1a	4a]	2ff]
4G	.	4b-	.
4A	.	1cc	4ee
4B-	.	.	4dd
2c	2g	.	2ee
2d	[2f	2a	[2dd
=151	=151	=151	=151
2B-	4f]	2b-	2dd]
.	4g	.	.
2c	2e	2g	1cc
1G	2d	2.g	.
.	2d	.	2b
.	.	4f	.
=152	=152	=152	=152
2.A	2c	2e	1cc
.	1f	1a	.
4B-	.	.	.
1c	.	.	2r
.	2e	2g	[2cc
=153	=153	=153	=153
0r	2f	2a	2cc]
.	2d	2f	2b-
.	2c	2e	2cc
.	[2f	2f	2a
=154	=154	=154	=154
1r	2f]	1c	2g
.	2e	.	4cc
.	.	.	4b-
2r	1f	2.cc	4a
.	.	.	4g
[2F	.	.	2a
.	.	4b-	.
=155	=155	=155	=155
2F]	1.c	2a	2f
2E	.	2g	2g
2F	.	2r	1a
2D	2F	2f	.
=156	=156	=156	=156
2C	2G	2e	1cc
1F	2.A	2f	.
.	.	2a	[1cc
.	4F	.	.
2E	2G	[2g	.
=157	=157	=157	=157
1F	1A	4g]	2cc]
.	.	4f	.
.	.	1f	2cc
1C	2G	.	1cc
.	[2c	2e	.
=158	=158	=158	=158
1F	2c]	0f	[0a
.	2c	.	.
2r	2d	.	.
[2F	2d	.	.
=159	=159	=159	=159
2F]	1f	0r	1a]
2F	.	.	.
2G	2e	.	1r
2G	4d	.	.
.	4c	.	.
=160	=160	=160	=160
1B-	1d	1.f	1r
2A	2c	.	[1cc
2F	[2f	2f	.
=161	=161	=161	=161
2c	2f]	2g	2cc]
2c	2e	2g	2cc
2.B-	1f	1b-	2dd
.	.	.	2dd
8A	.	.	.
8G	.	.	.
=162	=162	=162	=162
1F	1r	2a	1ff
.	.	2f	.
1r	2r	2a	2ee
.	[2c	2a	2cc
=163	=163	=163	=163
0r	2c]	2g	2ee
.	2c	2cc	2ee
.	2d	2b-	2dd
.	2f	2a	[2cc
=164	=164	=164	=164
0r	1e	1g	2cc]
.	.	.	2cc
.	1d	4f	2dd
.	.	4g	.
.	.	4a	2ff
.	.	4b-	.
=165	=165	=165	=165
2r	1.c	4cc	4ee
.	.	4b-	4dd
1F	.	4a	4cc
.	.	4g	4b-
.	.	4f	4a
.	.	4g	4b-
2F	2f	[2a	4cc
.	.	.	4a
=166	=166	=166	=166
2G	2d	4a]	4b-
.	.	4g	4cc
2B-	2d	1g	2.dd
1A	2e	.	.
.	.	.	4cc
.	4d	2f	[2cc
.	4c	.	.
=167	=167	=167	=167
1G	1d	2.g	2cc]
.	.	.	2b
.	.	4f	.
2r	2c	4e	1cc
.	.	4d	.
[2F	[2c	4c	.
.	.	4B-	.
=168	=168	=168	=168
2F]	2c]	2A	2r
2F	2c	1f	1a
1D	1d	.	.
.	.	2f	2b-
=169	=169	=169	=169
1C	1e	1g	2cc
.	.	.	2cc
1F	1f	2a	2cc
.	.	[2a	2cc
=170	=170	=170	=170
2F	2f	2a]	2dd
2F	2f	2a	1cc
2G	2d	1g	.
2G	2d	.	2b-
=171	=171	=171	=171
1A	0c	2f	0a
.	.	2e	.
1F	.	1f	.
=172	=172	=172	=172
2r	1c	2e	1g
1c	.	1g	.
.	[1e	.	2r
2c	.	2g	[2cc
=173	=173	=173	=173
1A	2e]	1a	2cc]
.	2e	.	2cc
4F	1f	2cc	1a
4G	.	.	.
4A	.	[2cc	.
4B-	.	.	.
=174	=174	=174	=174
1c	2e	4cc]	1g
.	.	8b	.
.	.	8a	.
.	2e	2g	.
1A	2f	4a	1cc
.	.	4b	.
.	2e	[2cc	.
=175	=175	=175	=175
2G	2g	2cc]	2dd
2G	1g	2b	2dd
1c	.	2cc	1ee
.	2e	[2g	.
=176	=176	=176	=176
1.c	2.g	2g]	1.cc
.	.	2e	.
.	4f	.	.
.	4e	2g	.
.	4d	.	.
2A	[2e	2a	2cc
=177	=177	=177	=177
2c	2e]	2g	2cc
2d	2f	2.f	2b-
1c	2g	.	1cc
.	.	8e	.
.	.	8d	.
.	2c	2e	.
=178	=178	=178	=178
[0F	2r	0f	1a
.	2c	.	.
.	2c	.	2r
.	2A	.	2cc
=179	=179	=179	=179
1F]	2c	2r	2cc
.	2d	2f	2a
1r	2A	2f	2cc
.	[2B-	2d	[2dd
=180	=180	=180	=180
0r	4B-]	2f	4dd]
.	4A	.	4cc
.	8G	1g	2b-
.	8A	.	.
.	8B-	.	.
.	8c	.	.
.	1d	.	2a
.	.	[2f	4g
.	.	.	4f
=181	=181	=181	=181
1r	0c	2f]	1g
.	.	4e	.
.	.	4d	.
2r	.	1e	2g
[2A	.	.	[2cc
=182	=182	=182	=182
2A]	0r	2e	2cc]
2B-	.	1g	2dd
2c	.	.	2ee
2A	.	2a	2cc
=183	=183	=183	=183
2G	2r	2b-	2dd
2c	1c	2g	2ee
2.F	.	1a	1ff
.	2d	.	.
8E	.	.	.
8D	.	.	.
=184	=184	=184	=184
1C	2e	1.cc	1ee
.	2c	.	.
1G	2d	.	2dd
.	2e	2b-	2g
=185	=185	=185	=185
1F	1f	1a	2a
.	.	.	1cc
1G	1d	2.g	.
.	.	.	2b
.	.	4f	.
=186	=186	=186	=186
2r	2e	2g	1cc
2F	2c	2a	.
2F	2d	1a	1r
2D	2f	.	.
=187	=187	=187	=187
1G	2e	0r	0r
.	2d	.	.
2F	2d	.	.
2E	[2c	.	.
=188	=188	=188	=188
2D	2c]	1r	1r
2D	2B	.	.
1C	2c	2r	2r
.	2e	2g	2cc
=189	=189	=189	=189
0r	2f	2a	2cc
.	2f	2cc	2a
.	2.d	2b-	2dd
.	.	2a	2dd
.	4e	.	.
=190	=190	=190	=190
0r	2f	2a	2cc
.	2g	2g	2b-
.	2d	2g	2a
.	2d	2f	2a
=191	=191	=191	=191
2r	2e	2g	2g
2C	2e	2g	2cc
[1F	2.f	[1a	[1cc
.	4f	.	.
=192	=192	=192	=192
2F]	2f	2a]	2cc]
2F	2c	2f	2a
1F	2d	2.f	[1a
.	2c	.	.
.	.	4e	.
=193	=193	=193	=193
2r	1f	2d	2a]
2F	.	2c	2a
2G	2e	2B-	2b-
2F	[2f	2c	[2a
=194	=194	=194	=194
1B-	2f]	1.d	2a]
.	4e	.	2g
.	4d	.	.
1A	1e	.	1a
.	.	2c	.
=195	=195	=195	=195
1.F	1.A	2r	1.cc
.	.	1f	.
2F	2A	2f	2cc
=196	=196	=196	=196
2F	2F	2a	2dd
2E	2G	2g	2cc
1D	2A	2.f	[1ff
.	2B-	.	.
.	.	4g	.
=197	=197	=197	=197
1C	2c	2a	2ff]
.	2c	2g	2ee
2.G	2.B-	1g	[1dd
4A	4c	.	.
=198	=198	=198	=198
2B-	4d	1f	2dd]
.	4e	.	.
2A	1f	.	2cc
1G	.	1g	1b-
.	2e	.	.
=199	=199	=199	=199
0F	2f	1c	[0a
.	1c	.	.
.	.	2r	.
.	2c	[2f	.
=200	=200	=200	=200
0r	2d	2f]	1a]
.	2d	2f	.
.	2e	2g	2r
.	2c	2g	[2cc
=201	=201	=201	=201
0r	2.f	2a	2cc]
.	.	2f	2cc
.	4e	.	.
.	2d	2.b-	2dd
.	2B-	.	2dd
.	.	4a	.
=202	=202	=202	=202
0r	1c	2g	2ee
.	.	1a	2cc
.	1d	.	2.ff
.	.	[2f	.
.	.	.	4ee
=203	=203	=203	=203
0r	2.B-	4f]	2dd
.	.	4d	.
.	.	1g	2b-
.	4G	.	.
.	2A	.	2cc
.	2B-	2f	[2dd
=204	=204	=204	=204
0r	1c	2.e	2dd]
.	.	.	1cc
.	.	8d	.
.	.	8c	.
.	1G	1d	.
.	.	.	2b
=205	=205	=205	=205
2r	1r	2c	2.cc
1c	.	1e	.
.	.	.	8b-
.	.	.	8a
.	2r	.	1g
2B-	[2g	2d	.
=206	=206	=206	=206
2c	2g]	2e	2r
2A	2f	2c	1cc
2G	2.g	1d	.
2G	.	.	2b-
.	4f	.	.
=207	=207	=207	=207
2A	2e	1c	2cc
2F	2f	.	2a
1G	2d	1B-	2g
.	2d	.	2b-
=208	=208	=208	=208
1A	2r	1c	2a
.	1c	.	2f
1G	.	2.d	1g
.	2B-	.	.
.	.	4e	.
=209	=209	=209	=209
1F	2c	4f	4a
.	.	4g	4b-
.	2A	4a	4cc
.	.	4f	4a
1r	2G	2g	4b-
.	.	.	4cc
.	2B-	2d	[2dd
=210	=210	=210	=210
0r	2A	2e	4dd]
.	.	.	4cc
.	2F	2f	1cc
.	1G	2.d	.
.	.	.	2b-
.	.	4e	.
=211	=211	=211	=211
2r	1F	2.f	1a
1c	.	.	.
.	.	4e	.
.	2G	1d	2g
2B-	[2g	.	2d
=212	=212	=212	=212
2c	2g]	1c	2e
2A	2c	.	2f
2G	2d	1r	1g
2B-	2d	.	.
=213	=213	=213	=213
2A	2e	2r	1a
2F	2f	1cc	.
1G	2d	.	1g
.	2d	2b-	.
=214	=214	=214	=214
2A	2c	2cc	2r
2F	2f	2a	1cc
1G	2e	2.g	.
.	2d	.	2b-
.	.	4f	.
=215	=215	=215	=215
2r	4c	2e	2.cc
.	4B-	.	.
1F	4A	2c	.
.	4G	.	4b-
.	2F	4d	2a
.	.	4c	.
2E	2G	[2c	[2g
=216	=216	=216	=216
2F	2A	4c]	4g]
.	.	4A	4f
2D	2F	2B-	1f
1C	1G	1c	.
.	.	.	2e
=217	=217	=217	=217
0F	0F	0c	0f
==	==	==	==
*-	*-	*-	*-
!!!CDT: 1525/^1526/-1594/2/2
!!!OCY: Italia
!!!AGN: Mass (Parody)
!!!AST: renaissance, vocal
!!!ASW: Motet 1532 (Penet)
!!!PWK: Masses, Book 11
!!!RNB: Cadence finals: C
!!!YOR: Le Opere Complete, v. 28, p. 1
!!!YOO: Rome, Italy: Fratelli Scalera
!!!END: 1992//
!!!EED: John Miller
!!!YEC: Copyright 2000, John Miller
!!!YEN: United States of America
!!!YEM: Rights to all derivative electronic formats reserved.
!!!YEM: Refer to licensing agreement for further details.
!!!YEM: This file must be accompanied by the licensing agreement.
!!!YEM: A copy of the licensing agreement may be found at http://www.music-cog.ohio-state.edu/HumdrumDatabases/Palestrina/license.txt
!!!EMD: converted to Humdrum by Bret Aarden
